static/assets/images/exchanges/velodrome.svg

<svg width="292" height="256" viewBox="0 0 292 256" fill="none" xmlns="http://www.w3.org/2000/svg">
<path d="M18.5748 64.1934C29.1845 45.4286 73.8401 22.6615 167.587 81.71C210.587 108.795 237.081 141.591 252.772 172.607C255.766 178.827 260.956 194.662 257.768 208.237C256.52 213.55 251.409 223.11 244.824 233.916C245.997 231.349 246.833 229.137 247.246 227.385C250.443 213.811 245.172 197.963 242.136 191.735C226.23 160.682 199.406 127.829 155.917 100.659C77.638 51.755 33.2647 58.6973 14.1552 73.1592L18.5748 64.1934Z" fill="#FF1100"/>
<path d="M22.6876 47.246C33.5035 28.5169 79.2982 5.94629 175.952 65.4986C220.285 92.8143 247.68 125.766 263.959 156.884C267.067 163.124 272.479 178.997 269.267 192.568C268.009 197.88 262.803 207.424 256.085 218.207C257.279 215.644 258.128 213.432 258.544 211.681C261.765 198.111 256.269 182.224 253.119 175.976C236.617 144.821 208.883 111.81 164.047 84.4072C83.3434 35.0833 37.7619 41.8165 18.1887 56.1973L22.6876 47.246Z" fill="#FDBF41"/>
<path d="M34.8839 33.906C36.2505 31.5392 38.1758 29.1111 40.6917 26.7951C41.5647 25.9915 42.5089 25.2013 43.5256 24.4319C62.763 9.87236 107.947 2.74313 188.148 52.1586C232.482 79.4742 259.876 112.426 276.156 143.544C279.263 149.784 284.675 165.657 281.463 179.228C280.205 184.54 274.998 194.084 268.281 204.867C269.475 202.303 270.324 200.092 270.74 198.341C273.961 184.772 268.465 168.884 265.315 162.636C248.813 131.48 221.08 98.4699 176.243 71.0672C95.5396 21.7433 49.9581 28.4764 30.3842 42.8572L34.8839 33.906Z" fill="#F4F4F4"/>
<path d="M250.046 235.805C239.173 254.524 193.059 277.04 95.5906 217.346C50.8834 189.966 23.2368 156.97 6.79203 125.824C0.746866 114.374 -1.82187 103.695 1.39711 90.1251C3.2164 82.4535 13.3258 65.964 24.3316 49.6669C24.205 51.5176 24.0952 53.3066 23.9896 55.0137C23.6083 61.2058 23.2918 66.3302 22.5426 69.5056C19.3392 83.0773 24.6694 98.9358 27.735 105.169C43.7963 136.249 70.8561 169.143 114.695 196.373C194.092 245.69 238.844 238.41 257.876 223.788L250.046 235.805Z" fill="#FF1100"/>
<path d="M261.233 220.082C250.279 238.787 203.721 261.226 105.115 201.336C59.8863 173.864 31.8885 140.808 15.2139 109.622C12.0297 103.368 6.46906 87.4698 9.69675 73.9023C11.106 67.9792 17.4996 56.8064 25.4464 44.527C22.931 49.1903 21.1638 53.1265 20.5011 55.9064C17.2667 69.4735 22.8855 85.3819 26.0993 91.6402C42.9276 122.853 71.1596 155.95 116.736 183.481C216.098 243.502 261.77 219.921 272.778 201.225L281.611 185.096L261.233 220.082Z" fill="#FDBF41"/>
<path d="M271.167 205.249C260.133 223.941 213.129 246.301 113.387 186.215C67.6368 158.654 39.2877 125.537 22.3829 94.3105C19.1537 88.0496 13.5061 72.1362 16.7435 58.5696C18.2059 52.4402 25.0542 40.6944 33.4512 27.9208C31.1535 32.3335 29.5396 36.058 28.902 38.7155C25.6463 52.2782 30.4845 67.9384 33.8021 74.2146C51.1671 105.521 80.2195 138.759 127.012 166.5C214.118 218.142 264.086 201.451 282.492 186.354L271.167 205.249Z" fill="#F4F4F4"/>
<path fill-rule="evenodd" clip-rule="evenodd" d="M46.4871 35.7817C33.0937 63.1494 68.4203 111.735 128.206 150.175C189.928 189.861 253.835 200.305 270.946 173.505L270.957 173.523C284.351 146.155 249.025 97.5692 189.238 59.1283C127.516 19.443 63.6091 8.99768 46.4982 35.7989L46.4871 35.7817ZM280.141 190.873C267.4 209.17 219.977 228.645 122.256 170.091C76.1585 142.47 49.5979 112.649 32.5406 81.3963C24.8657 67.3338 23.2595 55.2058 26.592 39.532C28.0018 32.8992 29.8163 26.5793 39 16.2331C37.9364 17.4831 37.0381 18.7424 36.3002 19.9856L40.6917 26.7951C41.5647 25.9915 42.5089 25.2013 43.5256 24.4319L39.2495 15.9531C39.1658 16.0467 39.0826 16.1401 39 16.2331C53.9197 -1.3002 101.378 -16.9988 195.188 39.2118C241.286 66.8327 269.836 100.254 282.852 124.51C291.338 140.325 293.696 153.322 290.852 169.772C289.552 175.89 286.715 182.937 280.141 190.873Z" fill="#007FFF"/>
<path d="M39 16.2331C37.9364 17.4831 37.0381 18.7424 36.3002 19.9856L40.6917 26.7951C41.5647 25.9915 42.5089 25.2013 43.5256 24.4319L39.2495 15.9531C39.1658 16.0467 39.0826 16.1401 39 16.2331Z" fill="#007FFF"/>
</svg>

<svg xmlns="http://www.w3.org/2000/svg" fill="none" viewBox="0 0 292 256"><path fill="#F10" d="M18.575 64.193C29.185 45.43 73.84 22.662 167.587 81.71c43 27.085 69.494 59.881 85.185 90.897 2.994 6.22 8.184 22.055 4.996 35.63-1.248 5.313-6.359 14.873-12.944 25.679 1.173-2.567 2.009-4.779 2.422-6.531 3.197-13.574-2.074-29.422-5.11-35.65-15.906-31.053-42.73-63.906-86.219-91.076-78.279-48.904-122.652-41.962-141.762-27.5z"/><path fill="#FDBF41" d="M22.688 47.246c10.816-18.73 56.61-41.3 153.264 18.253 44.333 27.315 71.728 60.267 88.007 91.385 3.108 6.24 8.52 22.113 5.308 35.684-1.258 5.312-6.464 14.856-13.182 25.639 1.194-2.563 2.043-4.775 2.459-6.526 3.221-13.57-2.275-29.457-5.425-35.705-16.502-31.155-44.236-64.166-89.072-91.569-80.704-49.324-126.285-42.59-145.858-28.21z"/><path fill="#F4F4F4" d="M34.884 33.906c1.367-2.367 3.292-4.795 5.808-7.11a38 38 0 0 1 2.834-2.364c19.237-14.56 64.421-21.689 144.622 27.727 44.334 27.315 71.728 60.267 88.008 91.385 3.107 6.24 8.519 22.113 5.307 35.684-1.258 5.312-6.465 14.856-13.182 25.639 1.194-2.564 2.043-4.775 2.459-6.526 3.221-13.569-2.275-29.457-5.425-35.705-16.502-31.156-44.235-64.166-89.072-91.569C95.54 21.743 49.958 28.477 30.384 42.857z"/><path fill="#F10" d="M250.046 235.805c-10.873 18.719-56.987 41.235-154.455-18.459-44.708-27.38-72.354-60.376-88.799-91.522-6.045-11.45-8.614-22.129-5.395-35.699 1.82-7.671 11.929-24.161 22.935-40.458-.127 1.85-.237 3.64-.342 5.347-.382 6.192-.698 11.316-1.447 14.492-3.204 13.571 2.126 29.43 5.192 35.663 16.061 31.08 43.121 63.974 86.96 91.204 79.397 49.317 124.149 42.037 143.181 27.415z"/><path fill="#FDBF41" d="M261.233 220.082c-10.954 18.705-57.512 41.144-156.118-18.746-45.229-27.472-73.226-60.528-89.901-91.714-3.184-6.254-8.745-22.152-5.517-35.72 1.409-5.923 7.803-17.096 15.75-29.375-2.516 4.663-4.283 8.6-4.946 11.38-3.234 13.567 2.384 29.475 5.598 35.733 16.829 31.213 45.06 64.31 90.637 91.841 99.362 60.021 145.034 36.44 156.042 17.744l8.833-16.129z"/><path fill="#F4F4F4" d="M271.167 205.249c-11.034 18.692-58.038 41.052-157.78-19.034-45.75-27.561-74.1-60.678-91.004-91.904-3.23-6.261-8.877-22.175-5.64-35.741 1.463-6.13 8.311-17.876 16.708-30.65-2.297 4.413-3.911 8.138-4.549 10.795-3.256 13.563 1.582 29.223 4.9 35.5 17.365 31.306 46.418 64.544 93.21 92.285 87.106 51.642 137.074 34.951 155.48 19.854z"/><path fill="#007FFF" fill-rule="evenodd" d="M46.487 35.782c-13.393 27.367 21.933 75.953 81.719 114.393 61.722 39.686 125.629 50.13 142.74 23.33l.011.018c13.394-27.368-21.932-75.954-81.719-114.395-61.722-39.685-125.629-50.13-142.74-23.33zm233.654 155.091c-12.741 18.297-60.164 37.772-157.885-20.782-46.097-27.621-72.658-57.442-89.715-88.695-7.675-14.062-9.281-26.19-5.949-41.864 1.41-6.633 3.224-12.953 12.408-23.299a27.4 27.4 0 0 0-2.7 3.753l4.392 6.81a38 38 0 0 1 2.834-2.364l-4.277-8.479-.249.28C53.92-1.3 101.378-16.999 195.188 39.212c46.098 27.62 74.648 61.042 87.664 85.298 8.486 15.815 10.844 28.812 8 45.262-1.3 6.118-4.137 13.165-10.711 21.101" clip-rule="evenodd"/><path fill="#007FFF" d="M39 16.233a27.4 27.4 0 0 0-2.7 3.753l4.392 6.81a38 38 0 0 1 2.834-2.364l-4.277-8.479z"/></svg>
